X: 1
T: Reel Amaj François
M: 2/2
K: Amaj
|: EAce eece | ecea ceaA | E2Ac eede | ecAA BAFA :|
|: BAAc BBdB | cBaB gBfB | BAAc BBdB |1 cBfB gBaB :|2 cBgB fBe2 |